src/assets/icons/profile-fill.svg

<svg width="28" height="29" viewBox="0 0 28 29" fill="none" xmlns="http://www.w3.org/2000/svg">
<mask id="mask0_6_404" style="mask-type:alpha" maskUnits="userSpaceOnUse" x="0" y="0" width="28" height="29">
<rect y="0.768066" width="28" height="28" fill="#C4C4C4"/>
</mask>
<g mask="url(#mask0_6_404)">
<path d="M13.9701 14.9559C12.3881 14.9559 10.6194 14.7809 9.49011 13.4905C8.54044 12.4055 8.23361 10.7279 8.55095 8.36655C8.99428 5.06955 11.0196 3.10138 13.9713 3.10138C16.9229 3.10138 18.9494 5.06955 19.3916 8.36655C19.7089 10.7279 19.4009 12.4032 18.4513 13.4905C17.3196 14.7809 15.5521 14.9547 13.9713 14.9547L13.9701 14.9559ZM20.7939 26.4475H7.14628C6.37278 26.4475 5.68795 26.1209 5.22128 25.5305C4.72895 24.9075 4.54928 24.0489 4.74295 23.2346C5.71595 19.1162 9.50994 16.238 13.9689 16.238C18.4279 16.238 22.2219 19.115 23.1973 23.2346C23.3886 24.0489 23.2089 24.9075 22.7166 25.5294C22.2499 26.1185 21.5674 26.4452 20.7939 26.4452V26.4475Z" fill="black"/>
</g>
</svg>

<svg width="28" height="29" fill="none" xmlns="http://www.w3.org/2000/svg"><mask id="a" style="mask-type:alpha" maskUnits="userSpaceOnUse" x="0" y="0" width="28" height="29"><path fill="#C4C4C4" d="M0 .768h28v28H0z"/></mask><g mask="url(#a)"><path d="M13.97 14.956c-1.582 0-3.35-.175-4.48-1.465-.95-1.085-1.256-2.763-.939-5.124C8.994 5.07 11.02 3.1 13.97 3.1c2.952 0 4.978 1.969 5.42 5.266.318 2.36.01 4.036-.94 5.123-1.131 1.29-2.899 1.465-4.48 1.465zm6.824 11.492H7.146a2.404 2.404 0 0 1-1.925-.918c-.492-.623-.672-1.481-.478-2.295.973-4.119 4.767-6.997 9.226-6.997 4.459 0 8.253 2.877 9.228 6.997.192.814.012 1.672-.48 2.294-.467.59-1.15.916-1.923.916v.003z" fill="#000"/></g></svg>
